design-system/icons/add_comment--labs-icons.svg

<svg width="21" height="20" viewBox="0 0 21 20" fill="none" xmlns="http://www.w3.org/2000/svg">
<g clip-path="url(#clip0_234_200)">
<mask id="mask0_234_200" style="mask-type:alpha" maskUnits="userSpaceOnUse" x="0" y="0" width="24" height="24">
<rect x="0.583252" width="23.0833" height="23.0833" fill="currentColor"/>
</mask>
<g mask="url(#mask0_234_200)">
<path d="M5.45825 14.753L3.45825 16.753C3.11103 17.1002 2.71172 17.1766 2.26034 16.9821C1.80895 16.7877 1.58325 16.4474 1.58325 15.9613V2.37798C1.58325 1.76687 1.79853 1.24604 2.22909 0.815481C2.65964 0.384925 3.18047 0.169647 3.79159 0.169647H17.3749C17.986 0.169647 18.5069 0.384925 18.9374 0.815481C19.368 1.24604 19.5833 1.76687 19.5833 2.37798V12.5446C19.5833 13.1558 19.368 13.6766 18.9374 14.1071C18.5069 14.5377 17.986 14.753 17.3749 14.753H5.45825ZM9.47909 8.54465V9.98215C9.47909 10.2877 9.58673 10.5481 9.802 10.7634C10.0173 10.9787 10.2777 11.0863 10.5833 11.0863C10.8888 11.0863 11.1492 10.9787 11.3645 10.7634C11.5798 10.5481 11.6874 10.2877 11.6874 9.98215V8.54465H13.1249C13.4305 8.54465 13.6909 8.43701 13.9062 8.22173C14.1214 8.00645 14.2291 7.74604 14.2291 7.44048C14.2291 7.13493 14.1214 6.87451 13.9062 6.65923C13.6909 6.44395 13.4305 6.33631 13.1249 6.33631H11.6874V4.89881C11.6874 4.59326 11.5798 4.33284 11.3645 4.11756C11.1492 3.90229 10.8888 3.79465 10.5833 3.79465C10.2777 3.79465 10.0173 3.90229 9.802 4.11756C9.58673 4.33284 9.47909 4.59326 9.47909 4.89881V6.33631H8.04159C7.73603 6.33631 7.47561 6.44395 7.26034 6.65923C7.04506 6.87451 6.93742 7.13493 6.93742 7.44048C6.93742 7.74604 7.04506 8.00645 7.26034 8.22173C7.47561 8.43701 7.73603 8.54465 8.04159 8.54465H9.47909Z" fill="currentColor"/>
</g>
</g>
<defs>
<clipPath id="clip0_234_200">
<rect width="20" height="20" fill="white" transform="translate(0.583252)"/>
</clipPath>
</defs>
</svg>

<svg xmlns="http://www.w3.org/2000/svg" width="21" height="20" fill="none" viewBox="0 0 21 20"><g clip-path="url(#a)"><mask id="b" width="24" height="24" x="0" y="0" maskUnits="userSpaceOnUse" style="mask-type:alpha"><path fill="currentColor" d="M.583 0h23.083v23.083H.583z"/></mask><g mask="url(#b)"><path fill="currentColor" d="m5.458 14.753-2 2q-.52.52-1.198.23-.677-.293-.677-1.022V2.378q0-.917.646-1.563Q2.874.17 3.792.17h13.583q.917 0 1.562.645.646.647.646 1.563v10.167q0 .916-.646 1.562-.645.645-1.562.646zM9.48 8.545v1.437q0 .459.323.781.323.324.781.323.459 0 .781-.323.323-.323.323-.78V8.544h1.438q.459 0 .781-.323.323-.323.323-.782 0-.458-.323-.78a1.06 1.06 0 0 0-.781-.324h-1.438V4.9q0-.459-.322-.781a1.06 1.06 0 0 0-.782-.323q-.458 0-.781.323a1.06 1.06 0 0 0-.323.78v1.438H8.042q-.458 0-.782.323a1.06 1.06 0 0 0-.323.781q0 .458.323.782.324.323.782.323z"/></g></g><defs><clipPath id="a"><path fill="#fff" d="M.583 0h20v20h-20z"/></clipPath></defs></svg>
